src/pos-icons/hard-hat.svg

<svg height="24" viewBox="0 0 24 24" width="24" xmlns="http://www.w3.org/2000/svg"><path d="m9.87 12.15-.87-5.69c1.95-.62 4.05-.62 6 0l-.87 5.69c-.07.49-.5.85-1 .85h-2.27c-.49 0-.92-.36-.99-.85m12.13 3.85c0-.79-.47-1.5-1.2-1.83-.48-2.31-1.84-4.34-3.8-5.67l-1.76 4.84c-.14.4-.52.66-.94.66h-4.6c-.42 0-.8-.26-.94-.66l-1.76-4.84c-1.96 1.33-3.32 3.36-3.8 5.66-.73.34-1.2 1.04-1.2 1.84l6.45 1.84c.36.1.73.16 1.1.16h4.88c.37 0 .74-.06 1.1-.16z"/></svg>

<?xml version="1.0" encoding="UTF-8"?><!DOCTYPE svg PUBLIC "-//W3C//DTD SVG 1.1//EN" "http://www.w3.org/Graphics/SVG/1.1/DTD/svg11.dtd"><svg xmlns="http://www.w3.org/2000/svg" xmlns:xlink="http://www.w3.org/1999/xlink" version="1.1" id="mdi-hard-hat" width="24" height="24" viewBox="0 0 24 24"><path d="M9.87,12.15L9,6.46C10.95,5.84 13.05,5.84 15,6.46L14.13,12.15C14.06,12.64 13.63,13 13.13,13H10.86C10.37,13 9.94,12.64 9.87,12.15M22,16V16C22,15.21 21.53,14.5 20.8,14.17C20.32,11.86 18.96,9.83 17,8.5L15.24,13.34C15.1,13.74 14.72,14 14.3,14H9.7C9.28,14 8.9,13.74 8.76,13.34L7,8.5C5.04,9.83 3.68,11.86 3.2,14.16C2.47,14.5 2,15.2 2,16L8.45,17.84C8.81,17.94 9.18,18 9.55,18H14.43C14.8,18 15.17,17.94 15.53,17.84L22,16Z" /></svg>
